X:1102
T:Wild Colonial Boy, The
C:Joe Buchanan's Scottish Tome - Page 639.2
I:639 2
Z:Carl Allison
R:Folk
L:1/4
M:3/4
K:C
"C"G | C2 E | "C7"G2 G | "F"A2 F | "Dm"D2 C | "G7"B, G,2 | E2 D | "C"C3- | C E F |
G2 G | c2 B | "G7"(B2 A) | D2 D/E/ | "F"F2 G | "G7"B2 A | "C"G3- | G2 G |
G2 c | c2 B | "G7"B2 A | D2 E | "F"F G2 | "G7"B2 A | "C"G3- | G2 G |
C2 E | "C7"G2 G | "F"A2 F | "Dm"D2 C | "G7"B,2 G, | E2 D | "C"C3- | C2 |

